X: 17352
T: High Drive, The
R: reel
M: 4/4
K: Dmajor
|:A|d3 e fedA|B2 gB BAGB|GA A2 fedf|eA A2 afge|
d3e fedA|B2 gB BAGB|GA A2 fedf|edce d3:|
|:A|a3g ad d2|AB B2 gBdB|GA A2 fedf|eA A2 efge|
a3g ad d2|AB B2 gBdB|GA A2 fedf|edce d3:|
A|:dAeA fA A2|gBBA Bgag|fA A2 fAdf|eA A2 efge|
dAeA fA A2|gBBA Bgag|fA A2 fAdf|1 edce d2 fe:|2 edce defg||
|:adda ddad|gddg ddgd|fddf ddfd|edde defg|
adda ddad|gBdg BdGB|GA A2 fedf|1 edce defg:|2 edce d4||

